dist/img/icon-card-working-us-1.svg

<svg width="96" height="97" viewBox="0 0 96 97" fill="none" xmlns="http://www.w3.org/2000/svg">
<rect width="96" height="97" rx="16" fill="#F4F5F6"/>
<path fill-rule="evenodd" clip-rule="evenodd" d="M72.8914 62H67.7126C67.463 64.2465 65.5523 66 63.2408 66C60.9293 66 59.0176 64.2465 58.7679 62H54.5891C54.1205 62 54 61.6104 54 61.1303V35.8697C54 35.3896 54.1205 35 54.5891 35H63.7436C67.2553 35 68.3961 37.2025 69.7154 39.753L73.6316 47.8664C73.7014 47.9976 73.7402 48.1447 73.7402 48.2938V61.1303C73.7402 61.6104 73.36 62 72.8914 62ZM63.2408 57C65.2917 57 67.0272 58.3798 67.5667 60.2606H72.0426V48.5214L71.3088 46.9963C71.2891 46.9987 71.269 47 71.2488 47H60.232C59.9606 47 59.7402 46.7761 59.7402 46.5002V36.7394H55.4379V60.2606H58.9138C59.4536 58.3798 61.1898 57 63.2408 57ZM65.3795 37.0111C66.3013 37.3858 66.8979 38.1573 67.5841 39.3832L70.7402 46H60.7402V37H65.1327C65.2179 37 65.3001 37.0036 65.3795 37.0111ZM60.7402 61.5C60.7402 60.1221 61.8631 59 63.2407 59C64.6174 59 65.7402 60.1221 65.7402 61.5C65.7402 62.8789 64.6174 64 63.2407 64C61.8631 64 60.7402 62.8789 60.7402 61.5ZM39.5 58.9998C38.1211 58.9998 37 60.1219 37 61.4998C37 62.8787 38.1211 63.9998 39.5 63.9998C40.8789 63.9998 42 62.8787 42 61.4998C42 60.1219 40.8789 58.9998 39.5 58.9998ZM39.5 65.9998C37.0193 65.9998 35 63.9806 35 61.4998C35 59.018 37.0193 56.9998 39.5 56.9998C41.9807 56.9998 44 59.018 44 61.4998C44 63.9806 41.9807 65.9998 39.5 65.9998Z" fill="#393939"/>
<path d="M43 61H53C54.1046 61 55 60.1046 55 59V34C55 32.8954 54.1046 32 53 32H31C29.8954 32 29 32.8954 29 34V36.5" stroke="#393939" stroke-width="2" stroke-linecap="round"/>
<path d="M36 61H31C29.8954 61 29 60.1046 29 59V53.5" stroke="#393939" stroke-width="2" stroke-linecap="round"/>
<path d="M29 43.5V46.5" stroke="#393939" stroke-width="2" stroke-linecap="round"/>
<path d="M20 40L31 40" stroke="#83C150" stroke-width="2" stroke-linecap="round"/>
<path d="M23 50L34 50" stroke="#83C150" stroke-width="2" stroke-linecap="round"/>
<path d="M16 45L24 45" stroke="#83C150" stroke-width="2" stroke-linecap="round"/>
<path d="M45 61H59" stroke="#393939" stroke-width="2" stroke-linecap="round"/>
</svg>

<svg width="96" height="97" fill="none" xmlns="http://www.w3.org/2000/svg"><rect width="96" height="97" rx="16" fill="#F4F5F6"/><path fill-rule="evenodd" clip-rule="evenodd" d="M72.891 62h-5.178c-.25 2.246-2.16 4-4.472 4a4.508 4.508 0 01-4.473-4h-4.179c-.468 0-.589-.39-.589-.87V35.87c0-.48.12-.87.59-.87h9.154c3.511 0 4.652 2.203 5.971 4.753l3.917 8.113c.07.132.108.279.108.428V61.13c0 .48-.38.87-.849.87zm-9.65-5a4.51 4.51 0 014.326 3.26h4.476V48.522l-.734-1.525a.497.497 0 01-.06.004H60.232a.496.496 0 01-.492-.5v-9.76h-4.302v23.52h3.476A4.51 4.51 0 0163.24 57zm2.138-19.989c.922.375 1.519 1.146 2.205 2.372L70.74 46h-10v-9h4.393c.085 0 .167.004.246.011zM60.74 61.5c0-1.378 1.123-2.5 2.5-2.5s2.5 1.122 2.5 2.5c0 1.379-1.123 2.5-2.5 2.5a2.504 2.504 0 01-2.5-2.5zM39.5 59a2.503 2.503 0 00-2.5 2.5c0 1.379 1.121 2.5 2.5 2.5s2.5-1.121 2.5-2.5c0-1.378-1.121-2.5-2.5-2.5zm0 7c-2.48 0-4.5-2.02-4.5-4.5 0-2.482 2.02-4.5 4.5-4.5s4.5 2.018 4.5 4.5c0 2.48-2.02 4.5-4.5 4.5z" fill="#393939"/><path d="M43 61h10a2 2 0 002-2V34a2 2 0 00-2-2H31a2 2 0 00-2 2v2.5M36 61h-5a2 2 0 01-2-2v-5.5m0-10v3" stroke="#393939" stroke-width="2" stroke-linecap="round"/><path d="M20 40h11m-8 10h11m-18-5h8" stroke="#83C150" stroke-width="2" stroke-linecap="round"/><path d="M45 61h14" stroke="#393939" stroke-width="2" stroke-linecap="round"/></svg>
